assets/fc/fc-generic-sorting-asc.svg

<svg xmlns="http://www.w3.org/2000/svg" width="100%" height="100%" viewBox="0 0 48 48"><path fill="#2196F3" d="M6 6h4v4H6zM6 14h12v4H6zM6 22h20v4H6zM6 30h28v4H6zM6 38h36v4H6z"/></svg>

<svg xmlns="http://www.w3.org/2000/svg" width="100%" height="100%" viewBox="0 0 48 48"><path fill="#2196F3" d="M6 6H10V10H6zM6 14H18V18H6zM6 22H26V26H6zM6 30H34V34H6zM6 38H42V42H6z"/></svg>
